X:126
T:Two Legged Dropsy, The
M:2/4
L:1/8
B:Thompson's Compleat Collection of 200 Favourite Country Dances, vol. 2 (London, 1765)
Z:Transcribed and edited by Flynn Titford-Mock, 2007
Z:abc's:AK/Fiddler's Companion
K:G
G,B,DG | BdBG | AcAF | DGDB, | G,B,DG | BdBG | AcAF | G2 G,2 :|
|: d2 bd | BdBG | c2 ac | AcAF | d2 bd | BdBG | AcAF | G2 G,2 :|

